X:018
L:1/16
M:2/4
K:G
dc | BGFG AGFG | Bdef g2(fg) | aAAB cBA^G | ABcd fedc |
"8va -"G2GD "-"EDB,D "-"| G2GD "-"B,DB,D "-"| G2GD "-"EGgf "-"| d.G(c/2B/2A/2G/2) "-".B.A.A"-".B |
"8va -"G2GD "-"EDB,D "-"| G2GD "-"B,DB,D "-"| G2GD "-"EGge "-"| d.G(c/2B/2A/2G/2) "-"BAA2"-|" ||
e^def g2fg | e^def g=dBd | e^def g2 fg | ((3efg) ((3fga) gdBd |
e^def g2 fg | e^def g=dBd | e^def gfg=d | ((3efg) ((3fga) gdef |
g2(dB) BAAB | (3.G.G.G (Ge) dBBd | ((3efg) (dg) BAAB | EGFA Ggfa |
g2(dB) BAAB | (3.G.G.G (GB) dBBd | ((3efg) (dg) BAAB | EGFA G2 |]

